docs/img/vk.svg

<svg width="44" height="28" xmlns="http://www.w3.org/2000/svg"><path d="M43.763 25.202c-1.797-3.234-6.426-7.12-8.337-8.811a1.242 1.242 0 0 1-.103-1.776c3.647-3.919 6.564-8.422 7.568-11.143C43.334 2.27 42.417 1 41.125 1h-3.753c-1.237 0-1.961.444-2.306 1.151-3.031 6.211-5.631 8.899-7.451 10.47-1.019.88-2.608.151-2.608-1.188v-8.28a2.084 2.084 0 0 0-2.095-2.075L16.056 1c-.863 0-1.356.977-.838 1.662l1.132 1.625c.426.563.656 1.248.656 1.951L17 13.556c0 1.273-1.543 1.895-2.459 1.003-3.099-3.018-5.788-9.181-6.756-12.128A2.087 2.087 0 0 0 5.8 1L2.103.991C.716.991-.298 2.306.079 3.63 3.457 15.487 10.388 26.767 22.74 27.99c1.217.12 2.267-.86 2.267-2.073v-3.846c0-1.103.865-2.051 1.977-2.079l.117-.001c3.267 0 6.926 4.755 8.206 6.979a2.07 2.07 0 0 0 1.8 1.03h4.973c1.451 0 2.382-1.539 1.683-2.798Z" fill="#7BA7AF"/></svg>

<?xml version="1.0" encoding="UTF-8"?>
<svg width="44px" height="28px" viewBox="0 0 44 28" version="1.1" xmlns="http://www.w3.org/2000/svg" xmlns:xlink="http://www.w3.org/1999/xlink">
    <!-- Generator: Sketch 57.1 (83088) - https://sketch.com -->
    <title>icons8-vkontakte</title>
    <desc>Created with Sketch.</desc>
    <g id="Page-1" stroke="none" stroke-width="1" fill="none" fill-rule="evenodd">
        <g id="icons8-vkontakte" fill="#7BA7AF" fill-rule="nonzero">
            <path d="M43.763,25.202 C41.966,21.968 37.337,18.082 35.426,16.391 C34.903,15.928 34.847,15.127 35.323,14.615 C38.97,10.696 41.887,6.193 42.891,3.472 C43.334,2.27 42.417,1 41.125,1 L37.372,1 C36.135,1 35.411,1.444 35.066,2.151 C32.035,8.362 29.435,11.05 27.615,12.621 C26.596,13.501 25.007,12.772 25.007,11.433 C25.007,8.853 25.007,5.518 25.007,3.153 C25.007,2.006 24.069,1.078 22.912,1.078 L16.056,1 C15.193,1 14.7,1.977 15.218,2.662 L16.35,4.287 C16.776,4.85 17.006,5.535 17.006,6.238 L17,13.556 C17,14.829 15.457,15.451 14.541,14.559 C11.442,11.541 8.753,5.378 7.785,2.431 C7.505,1.578 6.706,1.002 5.8,1 L2.103,0.991 C0.716,0.991 -0.298,2.306 0.079,3.63 C3.457,15.487 10.388,26.767 22.74,27.99 C23.957,28.11 25.007,27.13 25.007,25.917 L25.007,22.071 C25.007,20.968 25.872,20.02 26.984,19.992 C27.023,19.991 27.062,19.991 27.101,19.991 C30.368,19.991 34.027,24.746 35.307,26.97 C35.675,27.61 36.363,28 37.107,28 L42.08,28 C43.531,28 44.462,26.461 43.763,25.202 Z" id="Path"></path>
        </g>
    </g>
</svg>
